X:1
T:Title
%%score { ( 1 3 ) | 2 }
L:1/8
M:4/4
K:G
V:1 treble nm="Grand Piano"
V:3 treble 
V:2 bass 
V:1
 z4 z2[Q:1/4=100] [DB]>[CA] | [B,G]>[B,G] EG D2 GB | [F-A]4 F2 z2 | %3
 [B,G]>[B,DG] [G,CE][G,CG] [B,D]2 [B,DG]>[CDA] | [B,DG]6 [FA][GB] | [Ac]>[Ac] [GB][FA] B2 GB | %6
 z4 A2[K:bass][K:treble] z2 | [DB]>[DB] [DA][G,DG] [G,CE]2 [CEA]2 | %8
[M:7/8] [B,DG]2 [A,DF]2 [B,DG]3 |] %9
V:2
 z4 z2 [G,,G,]>[G,,G,] | [G,,G,]>[G,,G,] [C,G,C][E,G,C] [G,B,]2[K:treble] [G,B,D][G,DG] | %2
 D,2 D,D, [D,A,]2 D,>D, | G,,>G,, C,E, G,2 D,>D, | G,,2 G,,G,, G,,2 [D,D][D,D] | %5
 [D,D]>[D,D] [D,D][D,D][K:treble] [G,DG]2 [G,B,D][G,DG] | %6
 [G,B,G]>[G,B,G][K:bass] [G,D][B,,G,] .[D,F,D]2 [B,,G,][A,,F,] | %7
 [G,,G,]>[G,,G,] [B,,G,]B,, C,2 A,,2 |[M:7/8] D,2 D,2 G,,3 |] %9
V:3
 x8 | x8 | D2 CC d2 [DFB]>[CFA] | x8 | x8 | x8 | d>d B[DG] z[K:bass] C,[K:treble][DG][DA] | x8 | %8
[M:7/8] x7 |] %9

